X:1
T:Title
%%score { ( 1 3 ) | ( 2 4 5 ) }
L:1/8
Q:1/4=108
M:4/4
K:C
V:1 treble nm="Grand Piano"
V:3 treble 
V:2 bass 
V:4 bass 
V:5 bass 
V:1
 c3 c c2 G2 | E2 F2 G4 | [Ge]3 [Gd] [Gc]2 [^GB]2 | z2 [^Fd]2 z4 | c3 c c2 G2 | E2 F2 G4 | %6
w: Powell~G.~Fithian * * *||||||
 [CGc]>[CGc] [CGc][Ec] e2 d2 | [Ec]6 z2 | [Bd]3 d [Ac]2 [GB]2 | [GB]2 [^FA]2 [FA]4 | %10
w: ||||
 [ce]3 e [Bd]2 [Ac]2 | [Ac]2 [GB]2 [GB]4 | [DGB]3 [DGB] [D^FB]2 [D=FB]2 | %13
w: |||
 [DEB]2 [CEA]2 [Fd]2 [Ec]2 | [DGB]>[DGB] [DGB][EGc] [DGB]2 [C^FA]2 | [B,G]4 z4 | c3 c c2 G2 | %17
w: ||||
 E2 F2 G4 | [Ge]3 [Gd] [Gc]2 [^GB]2 | z2 [Fd]2 z4 | c3 c c2 G2 |[M:5/4] ABcd [^Ge]6 | %22
w: |||||
[M:4/4] c>c cc c2 d2 | [Ec]6 z2 |] %24
w: ||
V:2
 C3 C C2 G,2 | E,2 F,2 G,4 | [C,C]3 [D,B,] [E,C]2 [E,D]2 | %3
 [F,C]2 .[D,A,]2[K:treble] [G,DG]2 [G,B,]2 | C3 C C2[K:bass] G,2 | E,2 F,2 G,4 | %6
 E,>E, E,[C,G,][K:treble] [G,G]2 [G,B,F]2 | [C,G,C]6 z2 | z2 z[K:treble] B[K:bass] D,2 D,2 | %9
 z2 D,2 D,2 D,2 | z2 z[K:treble] c[K:bass] D,2 D,2 | z2 D,2 D,2 D,2 | G,3 G, G,2 G,2 | %13
 C,2 C,2 ^G,2 A,2 | D,>D, D,D, D,2 D,2 | G,4 z4 | C3 C C2 G,2 | E,2 F,2 G,4 | %18
 [C,C]3 [D,B,] [E,C]2 [E,D]2 | [F,C]2 .[D,A,]2[K:treble] [G,DG]2 [G,B,]2 | C3 C C2[K:bass] [E,C]2 | %21
[M:5/4] [F,CF]2 [F,A,]2 [E,B,]6 | %22
[M:4/4] [A,CE]>[K:treble][A,CE] [A,DF][^G,_E^F] [=G,=EG]2 [G,B,=F]2 | [C,G,C]6 z2 |] %24
V:3
 x8 | x8 | x8 | A2 z D B2 G2 | x8 | x8 | x8 | x8 | x8 | x8 | x8 | x8 | x8 | x8 | x8 | x8 | x8 | %17
 x8 | x8 | A2 z D B2 G2 | x8 |[M:5/4] z2 A2 z2 z4 |[M:4/4] x8 | x8 |] %24
V:4
 x8 | x8 | x8 | x4[K:treble] x4 | x6[K:bass] x2 | x8 | x4[K:treble] x4 | x8 | %8
 z2 D,2[K:treble][K:bass] z4 | D,,8 | z2 D,2[K:treble][K:bass] z4 | G,,8 | x8 | z4 C,4 | x8 | x8 | %16
 x8 | x8 | x8 | x4[K:treble] x4 | x6[K:bass] x2 |[M:5/4] x10 |[M:4/4] x3/2[K:treble] x13/2 | x8 |] %24
V:5
 x8 | x8 | x8 | x4[K:treble] x4 | x6[K:bass] x2 | x8 | x4[K:treble] x4 | x8 | %8
 G,,8[K:treble][K:bass] | x8 | D,,8[K:treble][K:bass] | x8 | x8 | x8 | x8 | x8 | x8 | x8 | x8 | %19
 x4[K:treble] x4 | x6[K:bass] x2 |[M:5/4] x10 |[M:4/4] x3/2[K:treble] x13/2 | x8 |] %24

